X: 4268
T: Bob Of Fettercairn, The
R: reel
M: 4/4
K: Gmajor
|:G2BG dGBG|G2BG g2fg|A2^cA eAcA|edef gfgd|
G2BG dGBG|G2BG g2fg|afge fde^c|1 AB^cd efgd:|2 AB^cd efg2||
|:dgBg dgBg|dgBg f2df|ea^ca eaca|e^cac efg2|
dgBg dgBg|dgBg f2fg|afge fde^c|1 AB^cd efg2:|2 AB^cd efgd||

